azure-patterns/svg-product-guide.svg

<svg xmlns="http://www.w3.org/2000/svg" viewBox="0 0 38.829 47.789"><path d="M38.829 0v47.789H2.987v-5.927H0v-2.987h2.987v-6H0v-2.983h2.987V17.944H0v-2.987h2.987V8.983H0V6h2.987V0zm-2.987 2.987H5.974V44.8h29.868zM14.935 26.858a5.807 5.807 0 0 1-2.322-.467 5.92 5.92 0 0 1-1.89-1.283 6.335 6.335 0 0 1-1.283-1.891 5.6 5.6 0 0 1-.479-2.31 5.807 5.807 0 0 1 .467-2.322 6.025 6.025 0 0 1 3.184-3.185 6.034 6.034 0 0 1 5.355.351l3.384-3.36a4.56 4.56 0 0 1-.443-1.937 4.393 4.393 0 0 1 .35-1.75 4.458 4.458 0 0 1 2.381-2.381 4.555 4.555 0 0 1 3.5 0 4.461 4.461 0 0 1 2.38 2.377 4.555 4.555 0 0 1 0 3.5 4.463 4.463 0 0 1-2.38 2.38 4.4 4.4 0 0 1-1.75.351 4.526 4.526 0 0 1-1.914-.443l-3.383 3.383a5.843 5.843 0 0 1 .816 3.034v.21a1.085 1.085 0 0 1-.023.21l3.967 1.307a4.486 4.486 0 0 1 5.273-1.377 4.461 4.461 0 0 1 2.381 2.38 4.555 4.555 0 0 1 0 3.5 4.458 4.458 0 0 1-2.381 2.381 4.393 4.393 0 0 1-1.75.35 4.334 4.334 0 0 1-1.727-.35 4.608 4.608 0 0 1-1.424-.945 4.389 4.389 0 0 1-.956-1.4 4.551 4.551 0 0 1-.374-1.715l-3.943-1.307a5.817 5.817 0 0 1-2.158 1.983 5.934 5.934 0 0 1-2.858.726zm-5.974 9.078v-2.988l23.895-.093v2.986zm0 2.894h23.894v2.986H8.961zm5.974-20.908a2.9 2.9 0 0 0-1.167.233 3.048 3.048 0 0 0-1.587 1.587 2.936 2.936 0 0 0 .643 3.267 3.084 3.084 0 0 0 .956.63 2.976 2.976 0 0 0 2.311 0 3.084 3.084 0 0 0 .956-.63 2.985 2.985 0 0 0 .643-3.267 3.048 3.048 0 0 0-1.59-1.588 2.9 2.9 0 0 0-1.165-.233zm10.454-8.96a1.485 1.485 0 0 0-1.051 2.538 1.485 1.485 0 1 0 2.1-2.1 1.434 1.434 0 0 0-1.049-.439zm2.986 14.934a1.514 1.514 0 1 0 1.05.443 1.436 1.436 0 0 0-1.05-.444z"/></svg>

<svg xmlns="http://www.w3.org/2000/svg" viewBox="0 0 38.829 47.789">
                                
                            
  <path d="M38.829,0V47.789H2.987V41.862H0V38.875H2.987v-6H0V29.892H2.987V17.944H0V14.957H2.987V8.983H0V6H2.987V0ZM35.842,2.987H5.974V44.8H35.842ZM14.935,26.858a5.807,5.807,0,0,1-2.322-.467,5.92,5.92,0,0,1-1.89-1.283,6.335,6.335,0,0,1-1.283-1.891,5.6,5.6,0,0,1-.479-2.31,5.807,5.807,0,0,1,.467-2.322A6.025,6.025,0,0,1,12.612,15.4a6.034,6.034,0,0,1,5.355.351l3.384-3.36a4.56,4.56,0,0,1-.443-1.937,4.393,4.393,0,0,1,.35-1.75,4.458,4.458,0,0,1,2.381-2.381,4.555,4.555,0,0,1,3.5,0A4.461,4.461,0,0,1,29.519,8.7a4.555,4.555,0,0,1,0,3.5,4.463,4.463,0,0,1-2.38,2.38,4.4,4.4,0,0,1-1.75.351,4.526,4.526,0,0,1-1.914-.443l-3.383,3.383a5.843,5.843,0,0,1,.816,3.034v.21a1.085,1.085,0,0,1-.023.21l3.967,1.307a4.486,4.486,0,0,1,5.273-1.377,4.461,4.461,0,0,1,2.381,2.38,4.555,4.555,0,0,1,0,3.5,4.458,4.458,0,0,1-2.381,2.381,4.393,4.393,0,0,1-1.75.35,4.334,4.334,0,0,1-1.727-.35,4.608,4.608,0,0,1-1.424-.945,4.389,4.389,0,0,1-.956-1.4,4.551,4.551,0,0,1-.374-1.715l-3.943-1.307a5.817,5.817,0,0,1-2.158,1.983A5.934,5.934,0,0,1,14.935,26.858ZM8.961,35.936V32.948l23.895-.093v2.986Zm0,2.894H32.855v2.986H8.961Zm5.974-20.908a2.9,2.9,0,0,0-1.167.233,3.048,3.048,0,0,0-1.587,1.587,2.936,2.936,0,0,0,.643,3.267,3.084,3.084,0,0,0,.956.63,2.976,2.976,0,0,0,2.311,0,3.084,3.084,0,0,0,.956-.63,2.985,2.985,0,0,0,.643-3.267A3.048,3.048,0,0,0,16.1,18.154,2.9,2.9,0,0,0,14.935,17.921Zm10.454-8.96A1.485,1.485,0,0,0,24.338,11.5a1.485,1.485,0,1,0,2.1-2.1A1.434,1.434,0,0,0,25.389,8.961Zm2.986,14.934a1.514,1.514,0,1,0,1.05.443A1.436,1.436,0,0,0,28.375,23.895Z"></path>
</svg>
